static/assets/img/icons/theme/text/underline.svg

<svg height="24" viewBox="0 0 24 24" width="24" xmlns="http://www.w3.org/2000/svg"><g fill="none" fill-rule="evenodd"><path d="m0 0h24v24h-24z" opacity="0"/><g fill="#000"><path d="m12.12 19.16c-3.34 0-5.72-2.18-5.72-5.68v-8.68h2.32v8.74c0 2.2 1.38 3.42 3.4 3.42s3.38-1.22 3.38-3.42v-8.74h2.32v8.68c0 3.5-2.36 5.68-5.7 5.68z"/><rect height="2" opacity=".3" rx="1" width="16" x="4" y="21"/></g></g></svg>

<svg width="24px" height="24px" viewBox="0 0 24 24" version="1.1" xmlns="http://www.w3.org/2000/svg" xmlns:xlink="http://www.w3.org/1999/xlink">
    <title>Icon For Underline</title>
    <g stroke="none" stroke-width="1" fill="none" fill-rule="evenodd">
        <rect opacity="0" x="0" y="0" width="24" height="24"></rect>
        <path d="M12.12,19.16 C8.78,19.16 6.4,16.98 6.4,13.48 L6.4,4.8 L8.72,4.8 L8.72,13.54 C8.72,15.74 10.1,16.96 12.12,16.96 C14.14,16.96 15.5,15.74 15.5,13.54 L15.5,4.8 L17.82,4.8 L17.82,13.48 C17.82,16.98 15.46,19.16 12.12,19.16 Z" fill="#000000"></path>
        <rect fill="#000000" opacity="0.3" x="4" y="21" width="16" height="2" rx="1"></rect>
    </g>
</svg>
